X: 2
T:Bourree de Brand
M:2/4
L:1/8
R:Bourree
Z:Steve Mansfield
K:G
d>B GB | c3g | f>d ef | ga bg | d>B GB | c3g |
f>d ef | g4 :: c2e2 | g=fd2 | e=f/e/ de/d/ |
cB AG | c2e2 | g=fd2 | e=f/e/ dB | c4 :|

